!!!COM: Palestrina, Giovanni Perluigi da
!!!OPR: Eripe me de inimicis
!!!OTL: Benedictus
**kern	**kern	**kern	**kern
*Ibass	*Itenor	*Icalto	*Icant
!Bassus	!Tenor	!Altus	!Cantus
*clefF4	*clefGv2	*clefG2	*clefG2
*k[]	*k[]	*k[]	*k[]
*D:dor	*D:dor	*D:dor	*D:dor
*M4/2	*M4/2	*M4/2	*M4/2
=1	=1	=1	=1
0r	0r	0r	1dd
.	.	.	2ff
.	.	.	2dd
=2	=2	=2	=2
0r	0r	1r	2ff
.	.	.	2ff
.	.	1a	1ee
=3	=3	=3	=3
0r	0r	2cc	4a
.	.	.	4b
.	.	2a	4cc
.	.	.	4dd
.	.	2cc	4ee
.	.	.	4ff
.	.	2cc	[2gg
=4	=4	=4	=4
0r	1r	1b	2gg]
.	.	.	2dd
.	1d	2a	2.ff
.	.	[2d	.
.	.	.	4ee
=5	=5	=5	=5
0r	2f	4d]	4dd
.	.	4e	4cc
.	2d	4f	2dd
.	.	4g	.
.	2f	4a	2cc
.	.	4b	.
.	2f	[2cc	[2a
=6	=6	=6	=6
0r	1e	2cc]	2a]
.	.	1b	2g
.	4A	.	1cc
.	4B	.	.
.	4c	[2a	.
.	4d	.	.
=7	=7	=7	=7
1r	[0e	2a]	1b
.	.	2g	.
1A	.	2.cc	4a
.	.	.	4b
.	.	.	4cc
.	.	4b	4dd
=8	=8	=8	=8
2c	0e]	4a	2ee
.	.	4g	.
2A	.	2a	2.cc
2c	.	4g	.
.	.	4f	4b
2c	.	[2e	[2a
=9	=9	=9	=9
1B	1r	4e]	2a]
.	.	4d	.
.	.	1d	2g#
1A	1e	.	[1a
.	.	2c#	.
=10	=10	=10	=10
2r	2f	1d	0a]
2.D	2d	.	.
.	2f	2r	.
4E	.	.	.
4F	2f	2a	.
4G	.	.	.
=11	=11	=11	=11
2.A	0e	2cc	0r
.	.	2a	.
4G	.	.	.
4A	.	2cc	.
4B	.	.	.
2c	.	2cc	.
=12	=12	=12	=12
4G	2d	1b	2r
4A	.	.	.
4B	2.d	.	2dd
4c	.	.	.
[1d	.	1a	2ff
.	4e	.	.
.	4f	.	2dd
.	4g	.	.
=13	=13	=13	=13
1d]	2a	4d	2ff
.	.	4e	.
.	1d	4f	2ff
.	.	4g	.
1A	.	4a	1ee
.	.	4b	.
.	2c	[2cc	.
=14	=14	=14	=14
0r	1f	4cc]	4a
.	.	4b	4b
.	.	2a	4cc
.	.	.	4dd
.	[1e	2g	4ee
.	.	.	4ff
.	.	2cc	[2ee
=15	=15	=15	=15
1r	1e]	2b	4ee]
.	.	.	4dd
.	.	1a	2cc
1E	1e	.	2b
.	.	2g	[2cc
=16	=16	=16	=16
2F	2c	1.f	2cc]
2D	2.d	.	2.b
2F	.	.	.
.	4c	.	4a
2F	2A	2d	[2a
=17	=17	=17	=17
1E	2B	2.e	2a]
.	1e	.	2g#
.	.	4d	.
2A	.	2c	[1a
4D	[2f	2d	.
4E	.	.	.
=18	=18	=18	=18
4F	2f]	1A	0a]
4G	.	.	.
4A	4e	.	.
4B	4d	.	.
4c	2e	1r	.
4A	.	.	.
[2d	2f	.	.
=19	=19	=19	=19
2d]	1e	2r	2r
2c#	.	2e	2ee
2d	1r	2f	2dd
2e	.	2g	2b
=20	=20	=20	=20
0A	1r	4a	4cc
.	.	4g	4b
.	.	4a	4cc
.	.	4b	4dd
.	2r	2cc	2ee
.	2A	[2a	2cc
=21	=21	=21	=21
0r	2B	2a]	2dd
.	2c	2g	2ee
.	4d	2.f	[1a
.	4c	.	.
.	4d	.	.
.	4e	4e	.
=22	=22	=22	=22
1r	2f	2d	0a]
.	2.d	2f	.
1A	.	[1e	.
.	4c	.	.
.	4c	.	.
.	8B	.	.
.	8A	.	.
=23	=23	=23	=23
2G	2B	1e]	0r
2E	2B	.	.
4F	2A	1r	.
4E	.	.	.
4F	2d	.	.
4G	.	.	.
=24	=24	=24	=24
2A	2c	2r	1a
2F	2f	2a	.
2G	1e	2g	2b
2A	.	2e	2cc#
=25	=25	=25	=25
0D	0d	4f	4dd
.	.	4e	4cc
.	.	4f	4dd
.	.	4g	4ee
.	.	2a	2ff
.	.	2f	[2dd
=26	=26	=26	=26
0r	0r	2g	2dd]
.	.	2a	2cc
.	.	2d	4b
.	.	.	4a
.	.	[2a	2cc
=27	=27	=27	=27
2r	1e	2a]	1b
2E	.	2g#	.
2F	2d	2a	1r
2G	2B	4g	.
.	.	4f	.
=28	=28	=28	=28
4A	4c	1e	0r
4G	4B	.	.
4A	4c	.	.
4B	4d	.	.
2c	2e	2r	.
[2A	2c	2e	.
=29	=29	=29	=29
2A]	2d	2f	2r
2G	1e	2g	2b
2F	.	4a	2cc
.	.	4g	.
2F	2d	4a	2dd
.	.	4b	.
=30	=30	=30	=30
1E	2.g	2cc	4ee
.	.	.	4dd
.	.	1b	4ee
.	4f	.	4ff
1r	4e	.	4gg
.	4d	.	4ff
.	2c	2cc	4ee
.	.	.	4dd
=31	=31	=31	=31
2r	2f	2.a	2cc
2d	2f	.	2dd
.	.	4b	.
2c	2e	1cc	2ee
2A	2a	.	2ff
=32	=32	=32	=32
4c	2g	1r	2.ee
4B	.	.	.
4c	2e	.	.
4d	.	.	8dd
.	.	.	8cc
2e	1g	2r	2b
2c	.	2e	[2ee
=33	=33	=33	=33
2d	2f	2f	4ee]
.	.	.	4dd
2B-	4e	2g	1dd
.	4d	.	.
[1A	2e	4a	.
.	.	4g	.
.	2f	4a	2cc
.	.	4b	.
=34	=34	=34	=34
1A]	4e	1cc	4a
.	4d	.	4b
.	4e	.	4cc
.	4f	.	4dd
1G	2.g	1b-	4ee
.	.	.	4dd
.	.	.	[2dd
.	4f	.	.
=35	=35	=35	=35
2.A	2e	2.a	2dd]
.	2e	.	2cc#
4A	.	4a	.
[1D	[1d	[1f#	[1dd
=36	=36	=36	=36
1D_	1d_	1f#_	1dd_
1D_	1d_	1f#_	1dd_
=37	=37	=37	=37
1D]	1d]	1f#]	1dd]
==	==	==	==
*-	*-	*-	*-
!!!CDT: 1525/^1526/-1594/2/2
!!!OCY: Italia
!!!AGN: Mass (Parody)
!!!AST: renaissance, vocal
!!!ASW: Motet 1559 (Maillard)
!!!PWK: Masses, Book 4
!!!RNB: Cadence finals: A
!!!YOR: Le Opere Complete, v. 10, p. 79
!!!YOO: Rome, Italy: Fratelli Scalera
!!!END: 1992//
!!!EED: John Miller
!!!YEC: Copyright 2000, John Miller
!!!YEN: United States of America
!!!YEM: Rights to all derivative electronic formats reserved.
!!!YEM: Refer to licensing agreement for further details.
!!!YEM: This file must be accompanied by the licensing agreement.
!!!YEM: A copy of the licensing agreement may be found at http://www.music-cog.ohio-state.edu/HumdrumDatabases/Palestrina/license.txt
!!!EMD: converted to Humdrum by Bret Aarden
